assets/efishery/pompa-air.svg

<svg width="24" height="25" viewBox="0 0 24 25" fill="none" xmlns="http://www.w3.org/2000/svg">
<path d="M5.75 12.2734C5.75 11.9973 5.97388 11.7734 6.25 11.7734H8.25C8.52612 11.7734 8.75 11.9973 8.75 12.2734C8.75 12.5496 8.52612 12.7734 8.25 12.7734H6.25C5.97388 12.7734 5.75 12.5496 5.75 12.2734Z" fill="#1D1D1D"/>
<path d="M5.75 14.2734C5.75 13.9973 5.97388 13.7734 6.25 13.7734H8.25C8.52612 13.7734 8.75 13.9973 8.75 14.2734C8.75 14.5496 8.52612 14.7734 8.25 14.7734H6.25C5.97388 14.7734 5.75 14.5496 5.75 14.2734Z" fill="#1D1D1D"/>
<path fill-rule="evenodd" clip-rule="evenodd" d="M14.25 7.02344V4.77344C14.25 3.39282 15.3693 2.27344 16.75 2.27344H22.25V5.27344H17.4375V7.02344H17.75C18.1642 7.02344 18.5 7.35913 18.5 7.77344V9.02344H18.75C19.1642 9.02344 19.5 9.35913 19.5 9.77344V11.0234H21.75C22.1642 11.0234 22.5 11.3591 22.5 11.7734V15.7734C22.5 15.9697 22.4246 16.1484 22.301 16.2822L22.2743 16.3096L22.2571 16.3262C22.2343 16.3472 22.2101 16.3667 22.1848 16.3848C22.1515 16.4084 22.1161 16.4294 22.0791 16.4475C21.9797 16.4961 21.868 16.5234 21.75 16.5234H19.5V17.7734C19.5 18.1877 19.1642 18.5234 18.75 18.5234H12.5V18.7734C12.5 19.1877 12.1642 19.5234 11.75 19.5234H10.75C10.5513 19.5234 10.3706 19.446 10.2363 19.3198C10.1785 19.2654 10.1293 19.2019 10.0909 19.1318C10.033 19.0254 10 18.9033 10 18.7734V18.5234H8.5V20.7734H21.75C22.3022 20.7734 22.75 21.2212 22.75 21.7734C22.75 22.3257 22.3022 22.7734 21.75 22.7734H3.75C3.19775 22.7734 2.75 22.3257 2.75 21.7734C2.75 21.2212 3.19775 20.7734 3.75 20.7734H4V17.7734C4 17.7327 4.0033 17.6926 4.00952 17.6536C2.7937 16.7932 2 15.376 2 13.7734C2 12.1709 2.7937 10.7537 4.00952 9.89331C4.0033 9.85425 4 9.81421 4 9.77344V6.77344C4 6.35913 4.33582 6.02344 4.75 6.02344H8.75C9.16418 6.02344 9.5 6.35913 9.5 6.77344V9.02344H10V8.77344C10 8.60303 10.0569 8.4458 10.1527 8.31982C10.2897 8.13965 10.5063 8.02344 10.75 8.02344H11.75C12.1642 8.02344 12.5 8.35913 12.5 8.77344V9.02344H13V7.77344C13 7.35913 13.3358 7.02344 13.75 7.02344H14.25ZM15.25 4.77344C15.25 3.94507 15.9216 3.27344 16.75 3.27344H21.25V4.27344H16.9375C16.6614 4.27344 16.4375 4.49731 16.4375 4.77344V7.02344H15.25V4.77344ZM10 17.0234H6.75C4.95508 17.0234 3.5 15.5684 3.5 13.7734C3.5 11.9785 4.95508 10.5234 6.75 10.5234H10V17.0234ZM12.5 10.5234V17.0234H18V10.5234H12.5ZM7 18.5234H5.5V20.0234H7V18.5234ZM8 7.52344V9.02344H5.5V7.52344H8ZM17 8.52344H14.5V9.02344H17V8.52344ZM21 15.0234H19.5V12.5234H21V15.0234Z" fill="#1D1D1D"/>
</svg>

<svg viewBox="0 0 24 25" xmlns="http://www.w3.org/2000/svg">
  <path d="M5.75 12.273a.5.5 0 0 1 .5-.5h2a.5.5 0 0 1 0 1h-2a.5.5 0 0 1-.5-.5zM5.75 14.273a.5.5 0 0 1 .5-.5h2a.5.5 0 0 1 0 1h-2a.5.5 0 0 1-.5-.5z"/>
  <path fill-rule="evenodd" clip-rule="evenodd" d="M14.25 7.023v-2.25a2.5 2.5 0 0 1 2.5-2.5h5.5v3h-4.813v1.75h.313a.75.75 0 0 1 .75.75v1.25h.25a.75.75 0 0 1 .75.75v1.25h2.25a.75.75 0 0 1 .75.75v4a.747.747 0 0 1-.199.51l-.027.027-.017.016a.755.755 0 0 1-.507.197H19.5v1.25a.75.75 0 0 1-.75.75H12.5v.25a.75.75 0 0 1-.75.75h-1a.748.748 0 0 1-.75-.75v-.25H8.5v2.25h13.25a1 1 0 0 1 0 2h-18a1 1 0 0 1 0-2H4v-3c0-.04.003-.08.01-.12A4.744 4.744 0 0 1 2 13.774c0-1.602.794-3.02 2.01-3.88a.762.762 0 0 1-.01-.12v-3a.75.75 0 0 1 .75-.75h4a.75.75 0 0 1 .75.75v2.25h.5v-.25a.747.747 0 0 1 .75-.75h1a.75.75 0 0 1 .75.75v.25h.5v-1.25a.75.75 0 0 1 .75-.75h.5zm1-2.25a1.5 1.5 0 0 1 1.5-1.5h4.5v1h-4.313a.5.5 0 0 0-.5.5v2.25H15.25v-2.25zM10 17.023H6.75a3.25 3.25 0 1 1 0-6.5H10v6.5zm2.5-6.5v6.5H18v-6.5h-5.5zm-5.5 8H5.5v1.5H7v-1.5zm1-11v1.5H5.5v-1.5H8zm9 1h-2.5v.5H17v-.5zm4 6.5h-1.5v-2.5H21v2.5z"/>
</svg>
